packages/foundations/assets/icons/functional/images/security/fingerprint_12.svg

<svg width="12" height="12" viewBox="0 0 12 12" fill="none" xmlns="http://www.w3.org/2000/svg">
<g clip-path="url(#clip0_232_421)">
<path fill-rule="evenodd" clip-rule="evenodd" d="M7.26588 10.4215C5.97218 9.66128 5.12967 8.54808 4.83034 7.2027C4.75733 6.87484 4.95263 6.5466 5.26693 6.47035C5.58196 6.39448 5.89516 6.59806 5.96817 6.92631C6.24998 8.19353 7.14103 8.94838 7.83899 9.3582C8.12007 9.52366 8.21972 9.89536 8.06166 10.1889C7.95434 10.3879 7.75612 10.5 7.55207 10.5C7.4546 10.5 7.35641 10.4748 7.26588 10.4215ZM3.71953 10.1508C3.52059 10.1508 3.32639 10.0444 3.21724 9.85304C2.76934 9.06808 2.62515 8.4013 2.61894 8.37309C2.51892 7.99033 2.46234 7.54619 2.46234 7.11731C2.46234 6.20806 2.84636 5.35105 3.51584 4.76623C4.04259 4.30608 4.71061 4.05256 5.39688 4.05256C6.67561 4.05256 7.79847 4.90691 8.19125 6.17871C8.29017 6.49932 8.12153 6.8432 7.81453 6.94651C7.5068 7.04983 7.17827 6.87408 7.07934 6.55346C6.8428 5.78718 6.16675 5.27251 5.39688 5.27251C4.98439 5.27251 4.58248 5.42501 4.26526 5.70254C3.8619 6.05481 3.63046 6.57062 3.63046 7.11769C3.63046 7.44021 3.67281 7.77379 3.75275 8.08221C3.76005 8.11309 3.87431 8.62242 4.22036 9.22858C4.38536 9.51794 4.29483 9.89231 4.01777 10.0646C3.92395 10.123 3.82138 10.1508 3.71953 10.1508ZM9.81348 8.71049C9.49955 8.63348 9.30461 8.30523 9.37872 7.97699C9.7255 6.43528 9.22978 4.82685 8.08502 3.77998C7.84227 3.55772 7.81818 3.17229 8.03063 2.91915C8.24345 2.66525 8.61214 2.64009 8.85489 2.86197C10.3256 4.20734 10.9623 6.27402 10.5162 8.25605C10.453 8.53702 10.2128 8.72652 9.94818 8.72652C9.90364 8.72688 9.85874 8.72154 9.81348 8.71049ZM1.53368 4.15359C1.29568 3.92599 1.27889 3.54056 1.49645 3.29162C2.37619 2.28592 3.57461 1.65917 4.87123 1.52612C5.48595 1.46436 6.09958 1.51201 6.69496 1.67023C7.00743 1.75372 7.19615 2.08577 7.11658 2.41211C7.037 2.73845 6.71978 2.9344 6.40621 2.85244C5.94261 2.72892 5.46441 2.69003 4.98512 2.74035C3.97615 2.84367 3.04348 3.33127 2.35867 4.11432C2.24368 4.24623 2.08562 4.31294 1.92719 4.31294C1.78702 4.31294 1.64575 4.26033 1.53368 4.15359Z" fill="#1A1C1F"/>
</g>
<defs>
<clipPath id="clip0_232_421">
<rect width="12" height="12" fill="white"/>
</clipPath>
</defs>
</svg>

<svg xmlns="http://www.w3.org/2000/svg" width="12" height="12" fill="none"><g clip-path="url(#a)"><path fill="#1A1C1F" fill-rule="evenodd" d="M7.266 10.422c-1.294-.76-2.136-1.874-2.436-3.22a.61.61 0 0 1 .437-.732.584.584 0 0 1 .701.456C6.25 8.194 7.141 8.948 7.84 9.358c.281.166.38.537.223.83a.58.58 0 0 1-.51.312.56.56 0 0 1-.286-.079M3.72 10.15a.58.58 0 0 1-.503-.298c-.448-.785-.592-1.452-.598-1.48a5 5 0 0 1-.157-1.256c0-.909.384-1.766 1.054-2.35a2.86 2.86 0 0 1 1.88-.714c1.28 0 2.402.854 2.795 2.126a.616.616 0 0 1-.376.768.58.58 0 0 1-.736-.394c-.236-.766-.912-1.28-1.682-1.28a1.72 1.72 0 0 0-1.132.43 1.88 1.88 0 0 0-.635 1.415c0 .322.043.656.123.964.007.031.121.54.467 1.147a.625.625 0 0 1-.202.836.56.56 0 0 1-.298.086m6.093-1.44a.61.61 0 0 1-.434-.734c.347-1.542-.15-3.15-1.294-4.197a.63.63 0 0 1-.054-.86.567.567 0 0 1 .824-.058c1.47 1.345 2.107 3.412 1.661 5.394a.59.59 0 0 1-.568.47.6.6 0 0 1-.135-.016m-8.28-4.557a.63.63 0 0 1-.037-.862 5.18 5.18 0 0 1 3.375-1.766 5.1 5.1 0 0 1 1.824.144.613.613 0 0 1 .422.742.583.583 0 0 1-.71.44 3.9 3.9 0 0 0-1.422-.112A4.03 4.03 0 0 0 2.36 4.114a.57.57 0 0 1-.825.04" clip-rule="evenodd"/></g><defs><clipPath id="a"><path fill="#fff" d="M0 0h12v12H0z"/></clipPath></defs></svg>
